images/PARTNERS/SVG/Verified.svg

<svg width="15" height="14" viewBox="0 0 15 14" fill="none" xmlns="http://www.w3.org/2000/svg">
<path d="M8.35698 0.19165C9.30238 -0.250126 10.4445 0.104873 10.9387 0.99158C11.2213 1.49962 11.732 1.85462 12.3254 1.95402C13.3617 2.12757 14.0691 3.0553 13.9203 4.05088C13.836 4.62045 14.031 5.19476 14.4509 5.60814C15.183 6.33076 15.183 7.47622 14.4509 8.19884C14.0327 8.61221 13.836 9.18652 13.9203 9.7561C14.0674 10.7517 13.3617 11.6794 12.3254 11.853C11.732 11.9524 11.2213 12.3074 10.9387 12.8154C10.4445 13.7037 9.30238 14.0571 8.35698 13.6153C7.81651 13.3629 7.18349 13.3629 6.64302 13.6153C5.69762 14.0571 4.55553 13.7021 4.06135 12.8154C3.77872 12.3074 3.268 11.9524 2.67465 11.853C1.63834 11.6778 0.932593 10.7501 1.07969 9.75452C1.16399 9.18494 0.968955 8.61064 0.549143 8.19726C-0.183048 7.47464 -0.183048 6.32918 0.549143 5.60656C0.967302 5.19318 1.16399 4.61888 1.07969 4.0493C0.932593 3.05373 1.63834 2.126 2.67465 1.95244C3.268 1.85304 3.77872 1.49804 4.06135 0.990002C4.55553 0.101717 5.69762 -0.251703 6.64302 0.190072C7.18349 0.444094 7.81651 0.444094 8.35698 0.19165Z" fill="#1723FF"/>
<path d="M4.36914 7.1684L6.17896 9.42777L10.6333 4.37891" fill="#1723FF"/>
<path d="M4.36914 7.1684L6.17896 9.42777L10.6333 4.37891" stroke="white" stroke-width="1.5" stroke-miterlimit="10" stroke-linecap="round" stroke-linejoin="round"/>
</svg>

<svg width="15" height="14" fill="none" xmlns="http://www.w3.org/2000/svg"><path d="M8.357.192c.945-.442 2.088-.087 2.582.8.282.508.793.863 1.386.962 1.037.174 1.744 1.101 1.595 2.097-.084.57.111 1.144.53 1.557a1.802 1.802 0 0 1 0 2.59 1.814 1.814 0 0 0-.53 1.558c.147.996-.558 1.923-1.595 2.097-.593.1-1.104.454-1.386.962-.495.889-1.637 1.242-2.582.8a2.034 2.034 0 0 0-1.714 0c-.945.442-2.087.087-2.582-.8a1.948 1.948 0 0 0-1.386-.962C1.638 11.678.933 10.75 1.08 9.755a1.809 1.809 0 0 0-.53-1.558 1.802 1.802 0 0 1 0-2.59c.417-.414.614-.988.53-1.558-.147-.995.558-1.923 1.595-2.097A1.948 1.948 0 0 0 4.06.99C4.556.102 5.698-.252 6.643.19c.54.254 1.174.254 1.714.002Z" fill="#1723FF"/><path d="m4.37 7.168 1.809 2.26 4.454-5.05" fill="#1723FF"/><path d="m4.37 7.168 1.809 2.26 4.454-5.05" stroke="#fff" stroke-width="1.5" stroke-miterlimit="10" stroke-linecap="round" stroke-linejoin="round"/></svg>
